packages/foundations/assets/icons/functional/images/transportation/pedestrian_16_inverted.svg

<svg width="16" height="16" viewBox="0 0 16 16" fill="none" xmlns="http://www.w3.org/2000/svg">
<g clip-path="url(#clip0_2214_6746)">
<path fill-rule="evenodd" clip-rule="evenodd" d="M8.31199 5.06244C9.14707 5.58656 9.98152 6.11298 10.8153 6.6417C11.133 6.84208 11.228 7.26201 11.0276 7.57964C10.8439 7.8708 10.4443 7.99611 10.0897 7.79194C9.59826 7.48407 9.10737 7.17421 8.61703 6.86236C8.48961 8.36341 8.4259 9.11393 8.4259 9.11393C8.46934 9.13314 8.58738 9.21271 8.62158 9.24533C9.32049 9.91188 10.0169 10.5843 10.0169 10.5843C10.0738 10.6389 10.1727 10.8078 10.1863 10.8455C10.4654 11.6202 10.7434 12.396 11.0202 13.1727C11.1469 13.5262 10.963 13.9155 10.6095 14.0422C10.2831 14.1592 9.89481 14.0053 9.73992 13.6315C9.47842 12.907 9.2183 12.1813 8.95957 11.4545L7.90823 10.4456L6.25794 13.7058C6.0883 14.0408 5.67916 14.1749 5.3441 14.0053C5.03482 13.8487 4.85317 13.4026 5.04458 13.0915C5.71522 11.7627 6.38715 10.4352 7.06037 9.10891L7.26503 6.70636L6.41957 7.10091L6.2182 8.3084C6.16096 8.6503 5.77716 8.92402 5.43526 8.86678C5.09335 8.80954 4.85403 8.50645 4.86801 8.16883L5.13803 6.52391C5.16972 6.33463 5.30628 6.10054 5.5212 6.01996C6.23418 5.68497 6.94767 5.35209 7.66167 5.02133C7.84137 4.93749 8.08679 4.93749 8.31199 5.06244ZM8.16848 1.91943C8.76494 1.91943 9.24848 2.40297 9.24848 2.99943C9.24848 3.5959 8.76494 4.07943 8.16848 4.07943C7.57201 4.07943 7.08848 3.5959 7.08848 2.99943C7.08848 2.40297 7.57201 1.91943 8.16848 1.91943Z" fill="#1A1C1F"/>
</g>
<defs>
<clipPath id="clip0_2214_6746">
<rect width="16" height="16" fill="white"/>
</clipPath>
</defs>
</svg>

<svg xmlns="http://www.w3.org/2000/svg" width="16" height="16" fill="none"><g clip-path="url(#a)"><path fill="#1A1C1F" fill-rule="evenodd" d="M8.312 5.062q1.253.787 2.503 1.58c.318.2.413.62.213.938a.69.69 0 0 1-.938.212q-.738-.462-1.473-.93l-.191 2.252c.043.02.161.099.196.131.698.667 1.395 1.34 1.395 1.34.057.054.156.223.17.26l.833 2.328a.68.68 0 0 1-.41.87.69.69 0 0 1-.87-.411q-.393-1.087-.78-2.177l-1.052-1.01-1.65 3.26a.68.68 0 0 1-.914.3c-.31-.156-.49-.602-.3-.914Q6.052 11.1 7.06 9.11l.205-2.403-.845.395-.202 1.207c-.057.342-.44.616-.783.559a.68.68 0 0 1-.567-.698l.27-1.645c.032-.19.168-.423.383-.504q1.07-.503 2.14-.999a.72.72 0 0 1 .651.041M8.168 1.92a1.08 1.08 0 1 1 0 2.16 1.08 1.08 0 0 1 0-2.16" clip-rule="evenodd"/></g><defs><clipPath id="a"><path fill="#fff" d="M0 0h16v16H0z"/></clipPath></defs></svg>
